resources/haticons/SVG/koding.svg

<!-- Generated by IcoMoon.io -->
<svg version="1.1" xmlns="http://www.w3.org/2000/svg" width="24" height="24" viewBox="0 0 24 24">
<title>koding</title>
<path fill="#00b057" d="M0.8 0h22.2v6h-22v-6zM0.8 9h17.2v6h-17.3v-6zM0.8 18h22.2v6h-22v-6z"></path>
</svg>

<svg xmlns="http://www.w3.org/2000/svg" width="24" height="24"><path fill="#00b057" d="M.8 0H23v6H1V0zm0 9H18v6H.7V9zm0 9H23v6H1v-6z"/></svg>
